X:107
T:Chosen
O:klezmer
M:2/4
L:1/8
Q:1/4=120
K:C
V:1
"C" c3/2 d/ee |e/f/e e/f/e |"Dm" dd d2 |"E" cB "Am" A2 |
cc Ac |"Dm" de/d/ "E" cB |"Am" A2 "Dm" d2 |"Am" c2 d2 |
"C" e3/2 f/gg |g/a/g g/a/g |"Dm" ff f2 |"E" ed "Am" c2 |
cc Ac |"Dm" de/d/ "E" cB |"Am" (A4 |fineA4) :|
aa gf |ef ^ga |e3 _e|e/_e/ c/B/A2 |
aa gf |ef ^ga |e3 _e|e Ac e||
"F" a ag f|"C" e dc2 |"Dm" f3/2 g/a/g/f |"Am" ed c2 |
cc Ac |"Dm" de/d/ "E" cB |"Am" A2 "Dm" d2 |"Am" c2 "Dm" d2 |
"F" aa gf |"C" ed c2 |"Dm" f3/2 g/a/g/f |"Am" ed c2 |
cc Ac |"Dm" de/d/ "E" cB |"Am" (A4 |A4)  |:
"Am" Ac ea |"G" gf ed |"C" cd2 c|"E7" e/_e/ cc/B/ A|
"Am" A3/2 B/c3/2 d/|"G" ef df |"C" e3 _e|e/_e/ cc2 |
"G" GG AB |"C" cd ef |"G" gg/a/ gf |"C" ed c2 |
"Dm" cd2 c|"E7" e/_e/ cc/B/ A|"Am" A3 e|e/_e/ cc2 |
"Dm" cd2 c|"E7" e/_e/ cc/B/ A|"Am" (A4 |A4) :| |:
"Am" e2 c'/b/a |"E7" ^g/a/b "Am" aa |c'/b/a "E7" ^g/a/b |"Am" aa a2 |
"G" gg g2 |"C" cc ce |1 "E7" e/_e/c c/B/A |"Am" A4 :|2
"E7" e/_e/c c/B/A |"Am" A2 z2) ||





